X:38
T: JA MEIN GLUECK DACHT ICH
N: F0111
O: Europa, Mitteleuropa, Deutschland
R: Scherz - Lied
M: 3/4
L: 1/16
K: G
B3A | G2B2d2d2B2G2 | F2A2d2d2
c2A2 | F2A2d2d2c2A2 | G2B2d2d2
B3A | G2B2d2d2B2G2 | F2A2d2d2
c3A | F2A2d2d2c3A | G4z4

@@@ Tune index: 5469
